icons/desktop/12/svg/sync-12.svg

<svg width="12" height="12" viewBox="0 0 12 12" fill="none" xmlns="http://www.w3.org/2000/svg">
<path d="M9.59375 3.32955C10.1527 4.07844 10.4999 4.99365 10.5 5.99947C10.5 8.48446 8.48498 10.4995 6 10.4995V11.601C5.9999 11.9578 5.56744 12.1357 5.31641 11.8823L3.61621 10.1645C3.4623 10.0085 3.46224 9.75798 3.61621 9.60201L5.31641 7.88521C5.56732 7.63139 5.99966 7.80879 6 8.16549V9.24947C7.79198 9.24945 9.25 7.79146 9.25 5.99947C9.24991 5.33975 9.04585 4.73008 8.70703 4.21725L9.59375 3.32955Z" fill="black"/>
<path d="M6 0.400839C6.00004 0.0440431 6.43255 -0.133874 6.68359 0.119589L8.38379 1.83736C8.53766 1.99337 8.53775 2.24391 8.38379 2.39986L6.68359 4.11666C6.43258 4.37054 6 4.19237 6 3.83541V2.75045C4.20815 2.75045 2.75024 4.20865 2.75 6.00045C2.75 6.65744 2.95207 7.26482 3.28906 7.77682L2.40234 8.66354C1.84637 7.91555 1.5 7.00244 1.5 5.99947C1.50023 3.51467 3.51514 1.49947 6 1.49947V0.400839Z" fill="black"/>
</svg>

<!-- This Source Code Form is subject to the terms of the Mozilla Public
   - License, v. 2.0. If a copy of the MPL was not distributed with this
   - file, You can obtain one at http://mozilla.org/MPL/2.0/. -->
<svg xmlns="http://www.w3.org/2000/svg" width="12" height="12" fill="context-fill" fill-opacity="context-fill-opacity" viewBox="0 0 12 12">
    <path d="M9.594 3.33c.559.748.906 1.664.906 2.67A4.5 4.5 0 0 1 6 10.5V11.6a.4.4 0 0 1-.684.281l-1.7-1.717a.4.4 0 0 1 0-.563l1.7-1.717a.4.4 0 0 1 .684.28V9.25A3.254 3.254 0 0 0 9.25 6c0-.66-.204-1.269-.543-1.782zM6 .4a.4.4 0 0 1 .684-.28l1.7 1.717a.4.4 0 0 1 0 .563l-1.7 1.717A.4.4 0 0 1 6 3.835V2.75A3.254 3.254 0 0 0 2.75 6c0 .657.202 1.265.54 1.777l-.888.887A4.45 4.45 0 0 1 1.5 5.999 4.5 4.5 0 0 1 6 1.5z" />
</svg>
